Origami/24x24/apps/google-agenda.svg

<svg width="24" height="24" version="1" xmlns="http://www.w3.org/2000/svg">
 <path d="m2 5.5v16c0 0.554 0.446 1 1 1h18c0.554 0 1-0.446 1-1v-16z" style="opacity:.2"/>
 <path d="m2 5v16c0 0.554 0.446 1 1 1h18c0.554 0 1-0.446 1-1v-16z" style="fill:#4384f1"/>
 <path d="m22 5.4995559v-2c0-0.554-0.446-1-1-1h-18c-0.554 0-1 0.446-1 1v2z" style="opacity:.2"/>
 <path d="m22 5v-2c0-0.554-0.446-1-1-1h-18c-0.554 0-1 0.446-1 1v2z" style="fill:#cccccc"/>
 <path d="m3 2c-0.554 0-1 0.446-1 1v0.5c0-0.554 0.446-1 1-1h18c0.554 0 1 0.446 1 1v-0.5c0-0.554-0.446-1-1-1z" style="fill:#ffffff;opacity:.2"/>
 <path d="m14.980469 9.4995567-1.980469 0.5v1.0000003l1.992188-0.5v7h-1.992188v1h5v-1h-2v-8.0000003zm-7.4570315 2e-3c-0.443085 0.008236-0.8146176 0.042922-1.0234375 0.042922v1.0000003c0.5824601 0 1.5161208-0.109293 2.2714844 0.05078 0.3776818 0.08004 0.6858581 0.219927 0.8886718 0.425781 0.202814 0.205854 0.3398438 0.482988 0.3398438 1 0 0.550717-0.1099107 0.877997-0.2421875 1.074219s-0.2942027 0.294693-0.5253906 0.363281c-0.3695905 0.109651-0.8959674 0.05341-1.3847657 0.0332-0.093116-0.0023-0.2436314-0.0317-0.3164062-0.0293-0.068836 0.0023-0.1272475 0.0055-0.1816406 0.01172-0.027197 0.0031-0.052918 0.0069-0.085937 0.01367-0.033021 0.0067-0.04854-0.01538-0.1894531 0.07422-0.017614 0.0112-0.062192 0.04465-0.0625 0.04492-3.086e-4 2.69e-4 -0.07989 0.08958-0.080078 0.08984-1.885e-4 2.67e-4 -0.076104 0.165751-0.076172 0.166015-6.77e-5 2.64e-4 -0.00591 0.226302-0.00586 0.226563 5.44e-5 2.61e-4 0.077947 0.181383 0.078125 0.18164 1.775e-4 2.57e-4 0.091495 0.09936 0.091797 0.09961 3.018e-4 2.53e-4 0.050236 0.0391 0.070313 0.05078s0.038091 0.01895 0.052734 0.02539c0.1171446 0.05152 0.1352352 0.04107 0.1679688 0.04492 0.065467 0.0077 0.1166458 0.0078 0.1894531 0.0078 0.069136 0 0.2451338-0.01953 0.3339844-0.01367 0.2033636 0.0065 0.4099531 0.0056 0.6875 0.06445 0.387144 0.08204 0.7825183 0.2357 1.0488281 0.458985 0.2663096 0.223315 0.4296873 0.485481 0.4296873 0.96878 0 0.500154-0.148152 0.762308-0.3925781 0.976562-0.2444261 0.214255-0.6268202 0.364306-1.0742188 0.447266-0.8947971 0.165918-1.9507447 0.054687-2.5332031 0.054687v1c0.4176416 0 1.611469 0.134642 2.7167969-0.07031 0.5526639-0.102478 1.1076668-0.29127 1.5507811-0.679688 0.443115-0.388421 0.732422-0.992421 0.732422-1.728517 0-0.752952-0.334616-1.356941-0.787109-1.736328-0.08403-0.07046-0.186056-0.0671-0.275391-0.125 0.229891-0.133901 0.482211-0.216308 0.648438-0.462891 0.273994-0.406451 0.414062-0.947274 0.414062-1.632813 0-0.719242-0.237948-1.306306-0.628906-1.703125-0.3909585-0.3968183-0.8952227-0.5957743-1.3925784-0.7011713-0.4973557-0.105399-1.0119931-0.123518-1.4550781-0.115235z" style="opacity:.2"/>
 <path d="m14.980469 8.9999997-1.980469 0.5v1.0000003l1.992188-0.5000003v7.0000003h-1.992188v1h5v-1h-2v-8.0000003zm-7.4570315 0.00195c-0.443085 0.008286-0.8146176 0.042972-1.0234375 0.042972v1.0000003c0.5824601 0 1.5161208-0.1092933 2.2714844 0.05078 0.3776818 0.08004 0.6858581 0.219927 0.8886718 0.425781 0.202814 0.205854 0.3398438 0.482988 0.3398438 1 0 0.550717-0.1099107 0.877997-0.2421875 1.074219s-0.2942027 0.294693-0.5253906 0.363281c-0.3695905 0.109651-0.8959674 0.05341-1.3847657 0.0332-0.093116-0.0023-0.2436314-0.0317-0.3164062-0.0293-0.068836 0.0023-0.1272475 0.0055-0.1816406 0.01172-0.027197 0.0031-0.052918 0.0069-0.085937 0.01367-0.033021 0.0067-0.04854-0.01538-0.1894531 0.07422-0.017614 0.0112-0.062192 0.04465-0.0625 0.04492-3.086e-4 2.69e-4 -0.07989 0.08958-0.080078 0.08984-1.885e-4 2.67e-4 -0.076104 0.165751-0.076172 0.166015-6.77e-5 2.64e-4 -0.00591 0.226302-0.00586 0.226563 5.44e-5 2.61e-4 0.077947 0.181383 0.078125 0.18164 1.775e-4 2.57e-4 0.091495 0.09936 0.091797 0.09961 3.018e-4 2.53e-4 0.050236 0.0391 0.070313 0.05078s0.038091 0.01895 0.052734 0.02539c0.1171446 0.05152 0.1352352 0.04107 0.1679688 0.04492 0.0654667 0.007739 0.1166456 0.007829 0.1894529 0.007829 0.069136 0 0.2451338-0.01953 0.3339844-0.01367 0.2033636 0.0065 0.4099531 0.0056 0.6875 0.06445 0.387144 0.08204 0.7825183 0.2357 1.0488281 0.458985 0.2663098 0.223286 0.4296875 0.485452 0.4296875 0.968751 0 0.500154-0.148152 0.762308-0.3925781 0.976562-0.2444261 0.214255-0.6268202 0.364306-1.0742188 0.447266-0.8947971 0.165918-1.9507447 0.054687-2.5332031 0.054687v1c0.4176416 0 1.611469 0.134642 2.7167969-0.07031 0.5526639-0.102478 1.1076668-0.29127 1.5507811-0.679688 0.443115-0.388421 0.732422-0.992421 0.732422-1.728517 0-0.752952-0.334616-1.356941-0.787109-1.736328-0.08403-0.07046-0.186056-0.0671-0.275391-0.125 0.229891-0.133901 0.482211-0.216308 0.648438-0.462891 0.273994-0.406451 0.414062-0.947274 0.414062-1.632813 0-0.719242-0.237948-1.306306-0.628906-1.7031253-0.3909585-0.396818-0.8952227-0.595774-1.3925784-0.701171-0.4973557-0.105399-1.0119931-0.1235181-1.4550781-0.115235z" style="fill:#ffffff"/>
</svg>

<svg xmlns="http://www.w3.org/2000/svg" width="24" height="24" version="1">
 <path style="opacity:0.2" d="m 2,5.5 v 16 c 0,0.554 0.446,1 1,1 h 18 c 0.554,0 1,-0.446 1,-1 v -16 z"/>
 <path style="fill:#4384f1" d="m 2,5 v 16 c 0,0.554 0.446,1 1,1 h 18 c 0.554,0 1,-0.446 1,-1 V 5 Z"/>
 <path style="opacity:0.2" d="m 22,5.4995559 v -2 c 0,-0.554 -0.446,-1 -1,-1 H 3 c -0.554,0 -1,0.446 -1,1 v 2 z"/>
 <path style="fill:#cccccc" d="M 22,5 V 3 C 22,2.446 21.554,2 21,2 H 3 C 2.446,2 2,2.446 2,3 v 2 z"/>
 <path style="opacity:0.2;fill:#ffffff" d="M 3,2 C 2.446,2 2,2.446 2,3 v 0.5 c 0,-0.554 0.446,-1 1,-1 h 18 c 0.554,0 1,0.446 1,1 V 3 C 22,2.446 21.554,2 21,2 Z"/>
 <path style="opacity:0.2" d="M 14.980469,9.4995567 13,9.9995567 v 1.0000003 l 1.992188,-0.5 v 7 H 13 v 1 h 5 v -1 H 16 V 9.4995567 Z m -7.4570315,0.002 C 7.0803525,9.5097927 6.7088199,9.5444787 6.5,9.5444787 v 1.0000003 c 0.5824601,0 1.5161208,-0.109293 2.2714844,0.05078 0.3776818,0.08004 0.6858581,0.219927 0.8886718,0.425781 0.202814,0.205854 0.3398438,0.482988 0.3398438,1 0,0.550717 -0.1099107,0.877997 -0.2421875,1.074219 -0.1322768,0.196222 -0.2942027,0.294693 -0.5253906,0.363281 -0.3695905,0.109651 -0.8959674,0.05341 -1.3847657,0.0332 -0.093116,-0.0023 -0.2436314,-0.0317 -0.3164062,-0.0293 -0.068836,0.0023 -0.1272475,0.0055 -0.1816406,0.01172 -0.027197,0.0031 -0.052918,0.0069 -0.085937,0.01367 -0.033021,0.0067 -0.04854,-0.01538 -0.1894531,0.07422 -0.017614,0.0112 -0.062192,0.04465 -0.0625,0.04492 -3.086e-4,2.69e-4 -0.07989,0.08958 -0.080078,0.08984 -1.885e-4,2.67e-4 -0.076104,0.165751 -0.076172,0.166015 -6.77e-5,2.64e-4 -0.00591,0.226302 -0.00586,0.226563 5.44e-5,2.61e-4 0.077947,0.181383 0.078125,0.18164 1.775e-4,2.57e-4 0.091495,0.09936 0.091797,0.09961 3.018e-4,2.53e-4 0.050236,0.0391 0.070313,0.05078 0.020077,0.01168 0.038091,0.01895 0.052734,0.02539 0.1171446,0.05152 0.1352352,0.04107 0.1679688,0.04492 0.065467,0.0077 0.1166458,0.0078 0.1894531,0.0078 0.069136,0 0.2451338,-0.01953 0.3339844,-0.01367 0.2033636,0.0065 0.4099531,0.0056 0.6875,0.06445 0.387144,0.08204 0.7825183,0.2357 1.0488281,0.458985 C 9.8366223,15.232608 10,15.494774 10,15.978073 10,16.478227 9.851848,16.740381 9.6074219,16.954635 9.3629958,17.16889 8.9806017,17.318941 8.5332031,17.401901 7.638406,17.567819 6.5824584,17.456588 6,17.456588 v 1 c 0.4176416,0 1.611469,0.134642 2.7167969,-0.07031 C 9.2694608,18.2838 9.8244637,18.095008 10.267578,17.70659 10.710693,17.318169 11,16.714169 11,15.978073 c 0,-0.752952 -0.334616,-1.356941 -0.787109,-1.736328 -0.08403,-0.07046 -0.186056,-0.0671 -0.275391,-0.125 0.229891,-0.133901 0.482211,-0.216308 0.648438,-0.462891 C 10.859932,13.247403 11,12.70658 11,12.021041 11,11.301799 10.762052,10.714735 10.371094,10.317916 9.9801355,9.9210977 9.4758713,9.7221417 8.9785156,9.6167447 8.4811599,9.5113457 7.9665225,9.4932267 7.5234375,9.5015097 Z"/>
 <path style="fill:#ffffff" d="M 14.980469,8.9999997 13,9.4999997 V 10.5 L 14.992188,9.9999997 V 17 H 13 v 1 h 5 V 17 H 16 V 8.9999997 Z m -7.4570315,0.00195 C 7.0803525,9.0102357 6.7088199,9.0449217 6.5,9.0449217 v 1.0000003 c 0.5824601,0 1.5161208,-0.1092933 2.2714844,0.05078 0.3776818,0.08004 0.6858581,0.219927 0.8886718,0.425781 0.202814,0.205854 0.3398438,0.482988 0.3398438,1 0,0.550717 -0.1099107,0.877997 -0.2421875,1.074219 -0.1322768,0.196222 -0.2942027,0.294693 -0.5253906,0.363281 -0.3695905,0.109651 -0.8959674,0.05341 -1.3847657,0.0332 -0.093116,-0.0023 -0.2436314,-0.0317 -0.3164062,-0.0293 -0.068836,0.0023 -0.1272475,0.0055 -0.1816406,0.01172 -0.027197,0.0031 -0.052918,0.0069 -0.085937,0.01367 -0.033021,0.0067 -0.04854,-0.01538 -0.1894531,0.07422 -0.017614,0.0112 -0.062192,0.04465 -0.0625,0.04492 -3.086e-4,2.69e-4 -0.07989,0.08958 -0.080078,0.08984 -1.885e-4,2.67e-4 -0.076104,0.165751 -0.076172,0.166015 -6.77e-5,2.64e-4 -0.00591,0.226302 -0.00586,0.226563 5.44e-5,2.61e-4 0.077947,0.181383 0.078125,0.18164 1.775e-4,2.57e-4 0.091495,0.09936 0.091797,0.09961 3.018e-4,2.53e-4 0.050236,0.0391 0.070313,0.05078 0.020077,0.01168 0.038091,0.01895 0.052734,0.02539 0.1171446,0.05152 0.1352352,0.04107 0.1679688,0.04492 C 7.3760138,13.99991 7.4271927,14 7.5,14 c 0.069136,0 0.2451338,-0.01953 0.3339844,-0.01367 0.2033636,0.0065 0.4099531,0.0056 0.6875,0.06445 0.387144,0.08204 0.7825183,0.2357 1.0488281,0.458985 C 9.8366223,14.733051 10,14.995217 10,15.478516 10,15.97867 9.851848,16.240824 9.6074219,16.455078 9.3629958,16.669333 8.9806017,16.819384 8.5332031,16.902344 7.638406,17.068262 6.5824584,16.957031 6,16.957031 v 1 c 0.4176416,0 1.611469,0.134642 2.7167969,-0.07031 0.5526639,-0.102478 1.1076668,-0.29127 1.5507811,-0.679688 C 10.710693,16.818612 11,16.214612 11,15.478516 c 0,-0.752952 -0.334616,-1.356941 -0.787109,-1.736328 -0.08403,-0.07046 -0.186056,-0.0671 -0.275391,-0.125 0.229891,-0.133901 0.482211,-0.216308 0.648438,-0.462891 C 10.859932,12.747846 11,12.207023 11,11.521484 11,10.802242 10.762052,10.215178 10.371094,9.8183587 9.9801355,9.4215407 9.4758713,9.2225847 8.9785156,9.1171877 8.4811599,9.0117887 7.9665225,8.9936696 7.5234375,9.0019527 Z"/>
</svg>
